TGeo/prim_arb8_z.svg

<svg viewBox="-600 -400 1200 800" width="1200" height="800" xmlns="http://www.w3.org/2000/svg"><path style="fill:rgb(120,0,0)" d="M-21,415l382,-250l-19,-325Z"/><path style="fill:rgb(97,0,0)" d="M-24,-28l-333,-183l31,376Z"/><path style="fill:rgb(100,0,0)" d="M-326,165l305,250l-3,-443Z"/><path style="fill:rgb(107,0,0)" d="M-24,-28l366,-132l-699,-51Z"/><path style="fill:rgb(163,0,0)" d="M342,-160l-366,132l3,443Z"/></svg>

<svg xmlns="http://www.w3.org/2000/svg" viewBox="-600 -400 1200 800" width="1200" height="800" style="background:rgb(255,255,255)"><path style="fill:rgb(120,0,0)" d="M-21,415L361,165L342,-160z"/><path style="fill:rgb(97,0,0)" d="M-24,-28L-357,-211L-326,165z"/><path style="fill:rgb(100,0,0)" d="M-326,165L-21,415L-24,-28z"/><path style="fill:rgb(107,0,0)" d="M-24,-28L342,-160L-357,-211z"/><path style="fill:rgb(163,0,0)" d="M342,-160L-24,-28L-21,415z"/></svg>
